X:1
T:Title
%%score { ( 1 4 ) | ( 2 3 ) }
L:1/8
M:6/8
K:Db
V:1 treble nm="Grand Piano"
V:4 treble 
V:2 bass 
V:3 bass 
V:1
 z3 z2[Q:1/4=100] A | [Fd]2 A A2 F | z2 B z3 | [A,DF]3[K:bass] [G,CE][A,CF][G,CE] | %4
[M:5/8] [F,D]-[F,D]- [F,D]3 |[M:1/8][K:treble] A |[M:3/4] [Fd]2 A A2 F | z2 .B2 z2 | %8
 [A,DF]3[K:bass] [G,CE] [A,CF][G,CE] |[M:5/8] [F,D]-[F,D]- [F,D]3 |[M:1/8][K:treble] A | %11
[M:3/4] [GB]2 BB cd | [FA]2 A F2 F | [EG]2 GE FG |[M:5/8] [DF]2 G A2 |[M:1/8] A | %16
[M:3/4] [GB]2 BB cd | [FA]2 A .F3 | [A,DF]3[K:bass] [G,CE] [A,CF][G,CE] | [F,D]6 | %20
 [A,FA]3 [A,EG] [A,FA][A,EG] | [A,DF]2 A d2 A | [A,DF]3[K:bass] [G,CE] [A,CF][G,CE] | %23
[M:5/8] [F,D]-[F,D]- [F,D]3 |[M:1/8][K:treble] [A,FA] |[M:3/4] [Fd][Fd] [Fd][DB] [Ec][Fd] | %26
 cc c .F3 | BB BG AB | [FA][FA] [FA] .[DF]3 | [FA]3 [EG] [FA][EG] | F2 A d2 A | %31
 [A,DF]3[K:bass] [G,CE] [A,CF][G,CE] |[M:13/8] [F,D]-[F,D]- [F,D]3 z z z z z z z2 |] %33
V:2
 z3 z2 F | z2[K:treble] F F2 D | z2 .D .F3 | D,3 A,,A,,A,, |[M:5/8] D,-D,- D,3 |[M:1/8] F | %6
[M:3/4] z2[K:treble] F F2 D | z2 .D .F3 | D,3 A,, A,,A,, |[M:5/8] D,-D,- D,3 |[M:1/8] F | %11
[M:3/4] z2[K:treble] GG AB | z2 F D2 D | z2 EC DE |[M:5/8] z2 E[K:treble] F2 |[M:1/8] F | %16
[M:3/4][K:bass] z2[K:treble] GG AB | z2 F .D3 | D,3 A,, A,,A,, | D,6 | D,3 A,, A,,A,, | %21
 D,2[K:treble] F F2 F | D,3 A,, A,,A,, |[M:5/8] D,-D,- D,3 |[M:1/8] D, | %25
[M:3/4] [B,,B,][B,,B,] [B,,B,][B,,B,] [B,,B,][B,,B,] | [F,=A,F][F,A,F] [F,A,F] .[F,A,]3 | %27
 [G,B,D][G,D] [G,D][G,B,D] [G,CD][G,DG] | [D,D][D,D] [D,D] .[D,A,]3 | %29
 [D,A,]3 [A,,A,] [A,,A,][A,,A,] | [D,A,D]2[K:treble] F F2 F | D,3 A,, A,,A,, | %32
[M:13/8] D,-D,- D,3 z z z z z z z2 |] %33
V:3
 x6 | D,,6[K:treble] | D,,6 | x6 |[M:5/8] x5 |[M:1/8] x |[M:3/4] D,,6[K:treble] | D,,6 | x6 | %9
[M:5/8] x5 |[M:1/8] x |[M:3/4] G,,6[K:treble] | D,6 | A,,6 |[M:5/8] D,-D,- D,3[K:treble] | %15
[M:1/8] x |[M:3/4][K:bass] G,,6[K:treble] | D,6 | x6 | x6 | x6 | x2[K:treble] x4 | x6 |[M:5/8] x5 | %24
[M:1/8] x |[M:3/4] x6 | x6 | x6 | x6 | x6 | x2[K:treble] x4 | x6 |[M:13/8] x13 |] %33
V:4
 x6 | x6 | [B,G]2 z/ E/ .A3 | x3[K:bass] x3 |[M:5/8] x5 |[M:1/8][K:treble] x |[M:3/4] x6 | %7
 [B,G]2 z/ E/ .A3 | x3[K:bass] x3 |[M:5/8] x5 |[M:1/8][K:treble] x |[M:3/4] x6 | x6 | x6 | %14
[M:5/8] x5 |[M:1/8] x |[M:3/4] x6 | x6 | x3[K:bass] x3 | x6 | x6 | x6 | x3[K:bass] x3 |[M:5/8] x5 | %24
[M:1/8][K:treble] x |[M:3/4] x6 | x6 | x6 | x6 | x6 | x6 | x3[K:bass] x3 |[M:13/8] x13 |] %33

